X:554
T: Die Schneidergei (253), S. 540
N: T0442
O: Luxemburg
S: Singendes Volk, Esch-Alzette, 1937 posth.]
N: Heffingen, fff Gelf, 30.8.1934
R: Berufslied]
M: 6/8
L: 1/16
K: G
D2 | G4G2G4G2 | A4A2A4
G2 | G4G2E4F2 | G6z4
G2 | G2G2B2d2B2G2 | G4B2d4
G2 | G4G2B4A2 | G6z4
G2 | G4B2d4B2 | A4B2c4
D2 | D2D2D2D2E2F2 | G2G2G2G4
G2 | G4B2d4B2 | A4B2c4
D2 | D2D2D2D2E2F2 | G6z6 |
G6BBBBGG | A4A2A6 | D4D2D6 | G4G2G6 |
G6BBBBGG | A4A2c4
A2 | B4G2B4A2 | G6z4

@@@ Tune index: 8608
